icons/ChevronDown_filled.svg

<svg width="24" height="24" viewBox="0 0 24 24" fill="none" xmlns="http://www.w3.org/2000/svg">
<path fill-rule="evenodd" clip-rule="evenodd" d="M12.8839,14.8839c-0.4882,0.4881 -1.2796,0.4881 -1.7678,0l-3.99998,-4c-0.48816,-0.4882 -0.48816,-1.27966 0,-1.76781c0.48815,-0.48816 1.27961,-0.48816 1.76776,0l3.11612,3.11611l3.1161,-3.11611c0.4882,-0.48816 1.2796,-0.48816 1.7678,0c0.4881,0.48815 0.4881,1.27961 0,1.76781z" fill="#002B51"/>
</svg>

<svg width="24" height="24" viewBox="0 0 24 24" fill="none" xmlns="http://www.w3.org/2000/svg">
<path fill-rule="evenodd" clip-rule="evenodd" d="M12.8839 14.8839C12.3957 15.372 11.6043 15.372 11.1161 14.8839L7.11612 10.8839C6.62796 10.3957 6.62796 9.60424 7.11612 9.11609C7.60427 8.62793 8.39573 8.62793 8.88388 9.11609L12 12.2322L15.1161 9.11609C15.6043 8.62793 16.3957 8.62793 16.8839 9.11609C17.372 9.60424 17.372 10.3957 16.8839 10.8839L12.8839 14.8839Z" fill="#002B51"/>
</svg>
